X:1
T:Oh Canada
T:Lavallée
%%score { ( 1 3 ) | 2 }
L:1/8
Q:1/4=120
M:4/4
K:C
V:1 treble nm="Piano"
V:3 treble 
V:2 bass 
V:1
 !3!E4 !5!G3 G | !2!C6 !1!D2 | E2 F2 G2 A2 | D6 z2 | !2!E4 !3!^F3 !2!F | !3!G6 !4!A2 | %6
 !5!B2 B2 A2 A2 | G6 DE | !4
1![B,F]3 E D2 EF | !4
1![CG]3 F E2 !3!FG | !5
1!A2 G2 F2 E2 | D6 DE | %12
 [B,F]3 E D2 EF | [CG]3 F E2 E2 | D2 G2 G^FEF | !5!G8 | !3!E4 G3 G | C8 | !3!F4 A3 A | D8 | %20
 !3!G4 !4!^G3 G | !5!A2 !3!=F2 E2 D2 | !2!C4 [B,D]4 | [B,E]8 | !2!G4 !5!c3 c | A2 F2 !3!E2 D2 | %26
 !5!G4 B,4 | C8 |] %28
V:2
 !1
2
4![C,E,G,]4 [B,,D,G,]4 | [A,,C,E,]6 !4!B,,2 | C,2 D,2 E,2 F,2 | !1
5![B,,G,]2 G,G, G,2 G,2 | %4
 [C,E,G,]4 [C,^F,A,]4 | [B,,D,G,]6 [C,E,A,]2 | [D,G,B,]4 [D,^F,C]4 | [G,B,]2 G,G, G,2 !2!=F,E, | %8
 !1
4![D,G,]3 E, F,2 z2 | !1
2![E,G,]3 D, C,2 !3!D,E, | !1!F,2 E,2 D,2 C,2 | G,2 G,G, G,2 F,E, | %12
 [D,G,]3 E, F,2 z2 | [E,G,]3 D, C,2 [^C,G,_B,]2 | [D,G,=B,]4 [D,A,=C]2 [D,A,C]2 | %15
 !1
3![G,B,]2 A,2 G,2 F,2 | !1
2
4![C,E,G,]4 [B,,D,G,]4 | [A,,C,E,]8 | [D,F,A,]4 [C,F,A,]4 | %19
 [B,,D,G,]8 | [C,E,G,]4 [C,E,^G,]4 | [C,F,A,]2 D,2 E,2 F,2 | [E,A,]4 [F,A,]4 | %23
 [E,^G,]2 E,E, E,2 E,2 | [E,G,C]4 [E,^G,C]4 | [F,A,C]2 !4!D,2 E,2 F,2 | [E,G,]4 [D,F,G,]4 | %27
 [C,E,G,]8 |] %28
V:3
 x8 | x8 | x8 | x8 | x8 | x8 | x8 | x8 | x8 | x8 | C8 | x8 | x8 | x8 | x8 | z2 =F2 E2 D2 | x8 | %17
 x8 | x8 | x8 | x8 | x8 | x8 | x8 | x8 | x8 | x8 | x8 |] %28

